images/holiday/4_故事.svg

<svg width="135" height="70" viewBox="0 0 135 70" fill="none" xmlns="http://www.w3.org/2000/svg">
<path d="M56.1992 35.418C56.0352 35.418 55.9076 35.3815 55.8164 35.3086C55.8164 35.3086 55.7708 35.263 55.6797 35.1719C55.6068 35.026 55.388 34.625 55.0234 33.9688C54.6771 33.3125 54.4219 32.8659 54.2578 32.6289C53.9115 32.1185 53.7383 31.7904 53.7383 31.6445C53.7383 31.444 53.8568 31.1523 54.0938 30.7695C54.4583 30.2591 54.7044 29.849 54.832 29.5391C55.069 29.1016 55.2422 28.7643 55.3516 28.5273C55.4609 28.2721 55.5065 28.0716 55.4883 27.9258C55.4701 27.8346 55.4609 27.7344 55.4609 27.625C55.4609 27.5521 55.4792 27.5156 55.5156 27.5156C55.5521 27.4974 55.625 27.5065 55.7344 27.543C55.9167 27.5977 56.1263 27.7253 56.3633 27.9258C56.418 27.9805 56.4818 28.0534 56.5547 28.1445C56.6276 28.2357 56.6732 28.3177 56.6914 28.3906C56.7279 28.4453 56.737 28.5091 56.7188 28.582C56.7188 28.6367 56.6914 28.6914 56.6367 28.7461L56.5 28.8555C56.3724 29.0195 56.2266 29.2201 56.0625 29.457C55.8984 29.694 55.7435 29.9128 55.5977 30.1133L54.9141 31.0977C54.7318 31.3529 54.6406 31.5352 54.6406 31.6445C54.6406 31.6992 54.7227 31.8451 54.8867 32.082L55.4609 32.7109C56.0078 33.3125 56.263 33.5951 56.2266 33.5586C56.5729 33.9049 56.7461 34.2422 56.7461 34.5703C56.7461 35.1354 56.5638 35.418 56.1992 35.418ZM59.8086 35.3359C59.6445 35.3359 59.5078 35.3086 59.3984 35.2539C59.1979 35.0534 59.0521 34.8164 58.9609 34.543L58.3867 33.5312L57.8398 32.5742C57.4935 32.1003 57.3203 31.7812 57.3203 31.6172C57.3203 31.3984 57.4388 31.1159 57.6758 30.7695L58.1133 30.1406C58.2956 29.8307 58.3958 29.6484 58.4141 29.5938C58.5964 29.2292 58.7513 28.9102 58.8789 28.6367C59.0247 28.3451 59.0885 28.1263 59.0703 27.9805C59.0521 27.9076 59.043 27.8164 59.043 27.707C59.043 27.5612 59.125 27.5247 59.2891 27.5977C59.526 27.6888 59.7812 27.8346 60.0547 28.0352C60.1823 28.1628 60.2643 28.2721 60.3008 28.3633C60.3555 28.4362 60.3828 28.5365 60.3828 28.6641C60.3828 28.7005 60.319 28.7734 60.1914 28.8828C60.0638 28.974 59.9544 29.0742 59.8633 29.1836C59.7539 29.293 59.5078 29.6393 59.125 30.2227C59.0521 30.332 58.9609 30.4596 58.8516 30.6055C58.7604 30.7331 58.6419 30.9062 58.4961 31.125C58.3138 31.362 58.2227 31.5352 58.2227 31.6445C58.2227 31.7539 58.332 31.918 58.5508 32.1367C58.6237 32.2096 58.6966 32.3008 58.7695 32.4102C58.8607 32.5013 58.9701 32.6107 59.0977 32.7383L59.8086 33.5312C60.1549 33.8411 60.3281 34.1419 60.3281 34.4336C60.3281 35.0352 60.1549 35.3359 59.8086 35.3359ZM60.1641 44.4414C59.8906 44.4414 59.6263 44.2409 59.3711 43.8398C59.043 43.3294 58.724 42.9102 58.4141 42.582L57.7031 41.8438C57.3203 42.2812 56.9831 42.6276 56.6914 42.8828C56.418 43.138 56.0716 43.3841 55.6523 43.6211C54.8685 44.0768 54.2122 44.3047 53.6836 44.3047C53.556 44.3047 53.4922 44.2591 53.4922 44.168C53.4922 44.1133 53.6654 43.9948 54.0117 43.8125C54.3581 43.6302 54.6862 43.4115 54.9961 43.1562C55.7799 42.5 56.4271 41.8255 56.9375 41.1328C56.8281 41.0234 56.2812 40.5495 55.2969 39.7109C55.1693 39.6198 54.9779 39.4648 54.7227 39.2461C54.668 39.2096 54.5586 39.1276 54.3945 39C54.2305 38.8724 54.1484 38.7812 54.1484 38.7266C54.1484 38.6354 54.194 38.5898 54.2852 38.5898C54.5586 38.5898 54.9961 38.7812 55.5977 39.1641C56.1992 39.5286 56.8281 39.9661 57.4844 40.4766C57.7396 40.1667 57.9401 39.875 58.0859 39.6016C58.2318 39.3281 58.3958 38.9909 58.5781 38.5898C58.6693 38.3893 58.724 38.2161 58.7422 38.0703C58.7604 37.9062 58.7695 37.806 58.7695 37.7695C58.7695 37.569 58.8242 37.4688 58.9336 37.4688C59.0612 37.4688 59.2344 37.569 59.4531 37.7695C59.8359 38.1341 60.0273 38.3802 60.0273 38.5078C60.0273 38.5807 59.9818 38.6628 59.8906 38.7539C59.6719 38.9727 59.4714 39.2643 59.2891 39.6289C59.1797 39.8477 58.9792 40.1576 58.6875 40.5586C58.5964 40.668 58.5234 40.7682 58.4688 40.8594C58.4141 40.9505 58.3594 41.0326 58.3047 41.1055C58.724 41.4154 59.3438 41.944 60.1641 42.6914C60.3646 42.8737 60.4922 43.0469 60.5469 43.2109C60.6198 43.3568 60.6562 43.5573 60.6562 43.8125C60.6562 43.9948 60.6107 44.1497 60.5195 44.2773C60.4284 44.3867 60.3099 44.4414 60.1641 44.4414ZM62.2422 34.8164C62.3333 34.8164 62.4701 34.8802 62.6523 35.0078C62.6341 35.0443 62.6706 35.1172 62.7617 35.2266C62.8529 35.3177 62.9167 35.3815 62.9531 35.418C63.0443 35.5091 63.1354 35.6185 63.2266 35.7461C63.3359 35.8737 63.4544 36.0104 63.582 36.1562C63.9102 36.5026 64.6667 37.4049 65.8516 38.8633C66.0521 39.1549 66.1523 39.3281 66.1523 39.3828C66.1523 39.5651 66.043 39.6562 65.8242 39.6562C65.6966 39.6562 65.5599 39.5651 65.4141 39.3828C65.0677 39.0182 64.4479 38.444 63.5547 37.6602C62.862 37.0221 62.2331 36.5299 61.668 36.1836C61.3945 36.056 61.2578 35.9102 61.2578 35.7461C61.2578 35.6185 61.3945 35.4362 61.668 35.1992C61.9232 34.944 62.1146 34.8164 62.2422 34.8164ZM48.2148 31.7539C47.431 34.9805 46.3919 37.7422 45.0977 40.0391C46.7565 42.4818 48.9167 44.7422 51.5781 46.8203C51.7786 46.9661 51.8789 47.1029 51.8789 47.2305C51.8789 47.3763 51.6693 47.5677 51.25 47.8047C50.849 48.0599 50.5664 48.1875 50.4023 48.1875C50.1654 48.1875 49.6641 47.8138 48.8984 47.0664C48.1328 46.3372 47.2943 45.4531 46.3828 44.4141C45.4896 43.3568 44.7513 42.3997 44.168 41.543C43.293 42.8372 42.3086 43.9948 41.2148 45.0156C40.1393 46.0182 39.1367 46.793 38.207 47.3398C37.2956 47.9049 36.6758 48.1875 36.3477 48.1875C36.2018 48.1875 36.1289 48.1328 36.1289 48.0234C36.1289 47.8594 36.3021 47.6406 36.6484 47.3672C37.9245 46.3828 39.1276 45.2708 40.2578 44.0312C41.388 42.7734 42.3724 41.4336 43.2109 40.0117C42.1172 38.1706 41.2148 36.2474 40.5039 34.2422C39.9388 35.2083 39.3555 36.0469 38.7539 36.7578C38.1523 37.4688 37.7604 37.8242 37.5781 37.8242C37.487 37.8242 37.4414 37.7604 37.4414 37.6328C37.4414 37.4141 37.5417 37.1315 37.7422 36.7852C38.6172 35.1445 39.3828 33.4857 40.0391 31.8086C40.6953 30.1315 41.1966 28.6732 41.543 27.4336C41.9076 26.1758 42.0898 25.3828 42.0898 25.0547C42.0898 24.8359 42.0807 24.6628 42.0625 24.5352V24.4805C42.0625 24.3346 42.1536 24.2617 42.3359 24.2617C42.6276 24.2617 42.9922 24.4258 43.4297 24.7539C43.8854 25.0638 44.1133 25.3555 44.1133 25.6289C44.1133 25.8659 43.8763 26.6042 43.4023 27.8438C42.9466 29.0651 42.5638 30.0312 42.2539 30.7422L47.832 30.3594C48.2331 30.3411 48.6432 30.25 49.0625 30.0859C49.2083 30.0495 49.2995 30.0312 49.3359 30.0312C49.5547 30.0312 49.8646 30.1862 50.2656 30.4961C50.6667 30.7878 50.8672 31.0521 50.8672 31.2891C50.8672 31.4896 50.6758 31.6081 50.293 31.6445L48.2148 31.7539ZM26.1758 31.8086C26.1758 31.7174 26.2214 31.6719 26.3125 31.6719C26.3854 31.6719 26.4401 31.681 26.4766 31.6992C26.75 31.7904 27.1237 31.8359 27.5977 31.8359H27.8711L31.918 31.6172L31.9453 26.8047C31.9453 26.6224 31.918 26.4401 31.8633 26.2578C31.8086 26.0755 31.7266 25.8841 31.6172 25.6836C31.5625 25.5924 31.5352 25.5104 31.5352 25.4375C31.5352 25.2917 31.6536 25.2188 31.8906 25.2188C32.0911 25.2188 32.3919 25.2734 32.793 25.3828C33.3945 25.5286 33.6953 25.793 33.6953 26.1758L33.5859 31.5352L35.8281 31.3984C36.375 31.3802 36.8763 31.2982 37.332 31.1523C37.3867 31.1341 37.4688 31.125 37.5781 31.125C37.8333 31.125 38.0703 31.207 38.2891 31.3711C38.526 31.5169 38.7174 31.6901 38.8633 31.8906C39.0273 32.0911 39.1094 32.237 39.1094 32.3281C39.1094 32.5833 38.8906 32.7292 38.4531 32.7656L33.5586 33.0391L33.4492 37.5234L35.9648 37.3867L36.2656 37.3594C36.5208 37.3594 36.7852 37.4779 37.0586 37.7148C37.332 37.9336 37.4688 38.1432 37.4688 38.3438C37.4688 38.4349 37.4323 38.5443 37.3594 38.6719C37.2865 38.7995 37.25 38.8997 37.25 38.9727L36.6484 43.8398C37.1042 44.4049 37.332 44.7878 37.332 44.9883C37.332 45.1159 37.2773 45.1979 37.168 45.2344C37.0768 45.2526 36.8945 45.2708 36.6211 45.2891L30.6875 45.4531L30.7695 46.5469V46.6289C30.7695 46.793 30.724 46.9297 30.6328 47.0391C30.5599 47.1484 30.4414 47.2031 30.2773 47.2031C30.0221 47.2031 29.7214 47.0938 29.375 46.875C29.0469 46.6745 28.8828 46.4466 28.8828 46.1914C28.8828 46.082 28.8919 46 28.9102 45.9453C28.9648 45.6354 28.9922 45.3073 28.9922 44.9609L28.9648 44.3867L28.6094 39.2461C28.5729 38.6992 28.4727 38.2435 28.3086 37.8789C28.2174 37.6966 28.1719 37.5508 28.1719 37.4414C28.1719 37.3138 28.263 37.25 28.4453 37.25C28.737 37.25 29.3385 37.4049 30.25 37.7148L31.8633 37.6328L31.8906 33.1484L28.3359 33.3398L27.7891 33.3672C27.3333 33.3672 27.0234 33.2852 26.8594 33.1211C26.6224 32.8841 26.4492 32.6289 26.3398 32.3555C26.2305 32.0638 26.1758 31.8815 26.1758 31.8086ZM30.5781 44.0039L35.0352 43.8398L35.4727 38.8633L30.2227 39.1367L30.5781 44.0039ZM41.4883 32.4102C42.1992 34.5977 43.056 36.5938 44.0586 38.3984C44.8971 36.7031 45.6263 34.5339 46.2461 31.8906L41.5977 32.2188L41.4883 32.4102Z" fill="#333333"/>
<path d="M95.5195 41.0781C95.3919 41.0781 95.3099 41.069 95.2734 41.0508C95.2552 41.0143 95.2826 40.9505 95.3555 40.8594C95.6107 40.6224 95.8112 40.3945 95.957 40.1758C96.1211 39.9388 96.2943 39.5651 96.4766 39.0547C96.7682 38.2161 96.9141 37.569 96.9141 37.1133C96.9141 36.694 96.8867 36.3112 96.832 35.9648V35.8828C96.832 35.6823 96.9596 35.6185 97.2148 35.6914C97.4336 35.7461 97.6797 35.819 97.9531 35.9102C98.0078 35.8919 98.0898 35.8828 98.1992 35.8828C98.3086 35.8646 98.4818 35.8372 98.7188 35.8008C99.3385 35.7096 100.141 35.6185 101.125 35.5273C101.125 35.4544 101.198 35.1992 101.344 34.7617L101.508 34.1602C101.581 33.9049 101.553 33.7773 101.426 33.7773C101.061 33.7773 100.214 33.8685 98.8828 34.0508L97.4336 34.2969C97.306 34.3151 97.1419 34.2604 96.9414 34.1328C96.7591 34.0052 96.6133 33.8594 96.5039 33.6953C96.4128 33.5312 96.431 33.4219 96.5586 33.3672C96.7044 33.276 96.8503 33.2305 96.9961 33.2305C97.1419 33.2305 97.2331 33.2305 97.2695 33.2305H97.625L99.4297 33.1758L101.18 32.957C101.271 32.9388 101.38 32.9115 101.508 32.875C101.654 32.8203 101.79 32.7839 101.918 32.7656C102.1 32.7292 102.41 32.9297 102.848 33.3672C102.921 33.4401 102.957 33.5221 102.957 33.6133C102.957 33.7227 102.884 33.832 102.738 33.9414C102.538 34.1419 102.41 34.3151 102.355 34.4609C102.337 34.5521 102.301 34.6888 102.246 34.8711C102.191 35.0352 102.137 35.2448 102.082 35.5C102.191 35.6276 102.246 35.7826 102.246 35.9648C102.246 36.1107 102.201 36.2201 102.109 36.293C102.036 36.3477 101.882 36.375 101.645 36.375C100.824 36.4297 100.177 36.4844 99.7031 36.5391C99.2292 36.5755 98.6549 36.6667 97.9805 36.8125C97.9076 37.6328 97.7435 38.3893 97.4883 39.082C97.2331 39.7565 96.8776 40.2669 96.4219 40.6133C95.9844 40.9232 95.6836 41.0781 95.5195 41.0781ZM104.242 30.7148C104.333 30.7148 104.47 30.7786 104.652 30.9062C104.634 30.9427 104.671 31.0156 104.762 31.125C104.853 31.2161 104.917 31.2799 104.953 31.3164C105.044 31.4076 105.135 31.5169 105.227 31.6445C105.336 31.7721 105.454 31.9089 105.582 32.0547C105.91 32.401 106.667 33.3034 107.852 34.7617C108.052 35.0534 108.152 35.2266 108.152 35.2812C108.152 35.4635 108.043 35.5547 107.824 35.5547C107.697 35.5547 107.56 35.4635 107.414 35.2812C107.068 34.9167 106.448 34.3424 105.555 33.5586C104.862 32.9206 104.233 32.4284 103.668 32.082C103.395 31.9544 103.258 31.8086 103.258 31.6445C103.258 31.5169 103.395 31.3346 103.668 31.0977C103.923 30.8424 104.115 30.7148 104.242 30.7148ZM87.8086 41.1875C88.2461 41.6432 88.4648 41.9714 88.4648 42.1719C88.4648 42.2995 88.401 42.3815 88.2734 42.418C88.1641 42.4544 87.9818 42.4818 87.7266 42.5L81.2188 42.7734V45.6992L81.2461 46.3828C81.2643 46.5104 81.2734 46.7018 81.2734 46.957C81.2734 47.5221 81.1094 47.9779 80.7812 48.3242C80.4531 48.6888 80.0885 48.8711 79.6875 48.8711C79.3594 48.8711 78.8307 48.6432 78.1016 48.1875C77.3724 47.7318 76.6979 47.2305 76.0781 46.6836C75.4583 46.1549 75.1484 45.7995 75.1484 45.6172C75.1484 45.4714 75.2487 45.3984 75.4492 45.3984C75.6315 45.3984 75.8138 45.444 75.9961 45.5352C77.4909 46.1732 78.6758 46.5924 79.5508 46.793V42.8281L74.3555 43.0469L73.6172 43.0742C72.9792 43.0742 72.5143 42.7005 72.2227 41.9531C72.168 41.8438 72.1406 41.7617 72.1406 41.707C72.1406 41.6159 72.1862 41.5703 72.2773 41.5703L72.4961 41.625C72.6966 41.6979 73.0156 41.7344 73.4531 41.7344H73.7812L79.5508 41.5156V39.793L70.2812 40.2031H70.0898C69.7253 40.2031 69.3971 40.1393 69.1055 40.0117C68.8138 39.8659 68.5951 39.5286 68.4492 39C68.431 38.9635 68.4219 38.918 68.4219 38.8633C68.4219 38.7721 68.4766 38.7266 68.5859 38.7266L68.75 38.7539C69.1146 38.8451 69.4336 38.8906 69.707 38.8906H69.9258L79.5508 38.4805V36.9766L74.1094 37.25H73.7266C73.2708 37.25 72.9154 37.1589 72.6602 36.9766C72.4232 36.7943 72.2591 36.6029 72.168 36.4023C72.0951 36.2018 72.0586 36.056 72.0586 35.9648C72.0586 35.8737 72.1042 35.8281 72.1953 35.8281C72.2682 35.8281 72.3229 35.8372 72.3594 35.8555C72.7604 35.9466 73.0885 35.9922 73.3438 35.9922L73.7539 35.9648L79.5234 35.6367V34.0508L74.7109 34.2695L74.7383 34.4883V34.5977C74.7383 34.8346 74.5833 34.9531 74.2734 34.9531C74.0729 34.9531 73.8086 34.9076 73.4805 34.8164C73.1706 34.707 73.0156 34.4974 73.0156 34.1875V33.5312C73.0156 33.276 73.0065 33.0846 72.9883 32.957L72.7969 31.4805C72.7422 30.9518 72.5964 30.5143 72.3594 30.168C72.2318 29.9674 72.168 29.8216 72.168 29.7305C72.168 29.6029 72.2682 29.5391 72.4688 29.5391C72.7969 29.5391 73.4258 29.7031 74.3555 30.0312L79.5234 29.7305V28.1445L71.7578 28.582C71.5938 28.6003 71.375 28.6094 71.1016 28.6094C70.7188 28.6094 70.4089 28.5091 70.1719 28.3086C69.9531 28.1081 69.7891 27.8984 69.6797 27.6797C69.5885 27.4427 69.543 27.2878 69.543 27.2148C69.543 27.1237 69.5977 27.0781 69.707 27.0781C69.7799 27.0781 69.8438 27.0872 69.8984 27.1055C70.263 27.1966 70.6367 27.2422 71.0195 27.2422H71.2656L79.5234 26.75V25.3828C79.5234 24.8177 79.3867 24.362 79.1133 24.0156C79.0586 23.9245 79.0312 23.8607 79.0312 23.8242C79.0312 23.7148 79.1315 23.6602 79.332 23.6602C79.5508 23.6602 79.806 23.7057 80.0977 23.7969C80.5534 23.9245 80.8451 24.0612 80.9727 24.207C81.1003 24.3529 81.1641 24.5716 81.1641 24.8633V26.6406L88.1367 26.2305C88.3919 26.2122 88.6471 26.1667 88.9023 26.0938C89.1576 26.0026 89.3216 25.9479 89.3945 25.9297C89.431 25.9115 89.4857 25.9023 89.5586 25.9023C89.8138 25.9023 90.1237 26.0664 90.4883 26.3945C90.8529 26.7227 91.0352 26.987 91.0352 27.1875C91.0352 27.388 90.8346 27.5065 90.4336 27.543L81.1641 28.0625V29.6484L86.7695 29.3203L87.207 29.293C87.444 29.293 87.6901 29.375 87.9453 29.5391C88.2188 29.6849 88.3555 29.8581 88.3555 30.0586C88.3555 30.168 88.3099 30.2865 88.2188 30.4141C88.1458 30.5417 88.1003 30.6328 88.082 30.6875L87.6445 32.4102C88.1003 32.8477 88.3281 33.1576 88.3281 33.3398C88.3281 33.4674 88.2643 33.5495 88.1367 33.5859C88.0091 33.6224 87.8086 33.6497 87.5352 33.668L81.1914 33.9688V35.5547L87.2617 35.1992L87.5625 35.1719C87.7995 35.1719 88.0547 35.2721 88.3281 35.4727C88.6198 35.6549 88.7656 35.901 88.7656 36.2109C88.7656 36.3021 88.7292 36.4206 88.6562 36.5664C88.5833 36.7122 88.5469 36.8216 88.5469 36.8945L88.3281 38.0977L90.4062 38.0156C90.7161 37.9974 90.9987 37.9427 91.2539 37.8516C91.5091 37.7604 91.6641 37.7057 91.7188 37.6875C91.8646 37.651 91.9648 37.6328 92.0195 37.6328C92.2018 37.6328 92.4844 37.7786 92.8672 38.0703C93.25 38.362 93.4414 38.6172 93.4414 38.8359C93.4414 39.0547 93.1953 39.1823 92.7031 39.2188L88.1094 39.4102L87.8086 41.1875ZM74.5742 33.0664L79.5234 32.8203V30.9336L74.3555 31.2344L74.5742 33.0664ZM81.2188 41.4609L86.25 41.2695L86.4961 39.4922L81.1914 39.7383L81.2188 41.4609ZM86.6602 38.1797L86.8789 36.5938L81.1914 36.8945V38.3984L86.6602 38.1797ZM86.0586 32.4922L86.3867 30.5508L81.1914 30.8516V32.7383L86.0586 32.4922Z" fill="#333333"/>
</svg>

<svg xmlns="http://www.w3.org/2000/svg" width="135" height="70" fill="none"><path fill="#333" d="M56.2 35.418c-.165 0-.292-.036-.384-.11l-.136-.136a47.978 47.978 0 0 0-.657-1.203c-.346-.657-.601-1.103-.765-1.34-.347-.51-.52-.839-.52-.984 0-.201.119-.493.356-.875.364-.51.61-.921.738-1.23.237-.438.41-.776.52-1.013.109-.255.155-.455.136-.601a1.539 1.539 0 0 1-.027-.301c0-.073.018-.11.055-.11.036-.018.109-.009.218.028.183.055.392.182.63.383.054.055.118.127.19.219a.677.677 0 0 1 .137.246.23.23 0 0 1 .028.191c0 .055-.028.11-.082.164l-.137.11c-.128.163-.273.364-.438.601-.164.237-.319.456-.464.656l-.684.985c-.182.255-.273.437-.273.547 0 .054.082.2.246.437l.574.629c.547.602.802.884.766.848.346.346.52.683.52 1.011 0 .565-.183.848-.548.848Zm3.609-.082a.913.913 0 0 1-.41-.082c-.201-.2-.347-.438-.438-.711l-.574-1.012-.547-.957c-.347-.474-.52-.793-.52-.957 0-.219.119-.501.356-.848l.437-.628c.183-.31.283-.493.301-.547.182-.365.337-.684.465-.957.146-.292.21-.51.191-.657a1.152 1.152 0 0 1-.027-.273c0-.146.082-.182.246-.11.237.092.492.238.766.438.127.128.21.237.246.328a.491.491 0 0 1 .082.301c0 .037-.064.11-.192.219a1.74 1.74 0 0 0-.328.3c-.11.11-.355.456-.738 1.04-.073.109-.164.237-.273.383-.092.127-.21.3-.356.519-.182.237-.273.41-.273.52 0 .109.109.273.328.492.073.073.146.164.218.273l.329.328.71.793c.347.31.52.61.52.903 0 .601-.173.902-.52.902Zm.355 9.105c-.273 0-.538-.2-.793-.601a8.658 8.658 0 0 0-.957-1.258l-.71-.738c-.384.437-.72.784-1.013 1.039-.273.255-.62.501-1.039.738-.784.456-1.44.684-1.968.684-.128 0-.192-.046-.192-.137 0-.055.173-.173.52-.355.346-.183.674-.402.984-.657.784-.656 1.431-1.33 1.941-2.023-.109-.11-.656-.584-1.64-1.422a9.311 9.311 0 0 1-.574-.465 7.212 7.212 0 0 1-.328-.246c-.165-.128-.247-.219-.247-.273 0-.092.046-.137.137-.137.274 0 .711.191 1.313.574.601.365 1.23.802 1.886 1.313a5.4 5.4 0 0 0 .602-.875c.146-.274.31-.611.492-1.012.091-.2.146-.374.164-.52.018-.164.028-.264.028-.3 0-.201.054-.301.164-.301.127 0 .3.1.52.3.382.365.573.611.573.739 0 .073-.045.155-.136.246-.22.219-.42.51-.602.875-.11.219-.31.529-.602.93a2.44 2.44 0 0 0-.218.3c-.055.091-.11.174-.164.246.419.31 1.039.839 1.86 1.586.2.183.327.356.382.52.073.146.11.346.11.602a.778.778 0 0 1-.137.464.44.44 0 0 1-.356.164Zm2.078-9.625c.091 0 .228.064.41.192-.018.036.019.11.11.219l.191.191c.091.091.182.2.274.328.109.128.227.264.355.41.328.347 1.085 1.249 2.27 2.707.2.292.3.465.3.52 0 .182-.109.273-.328.273-.127 0-.264-.09-.41-.273-.346-.365-.966-.939-1.86-1.723-.692-.638-1.32-1.13-1.886-1.476-.273-.128-.41-.274-.41-.438 0-.128.136-.31.41-.547.255-.255.447-.383.574-.383Zm-14.027-3.062c-.784 3.226-1.823 5.988-3.117 8.285 1.659 2.443 3.819 4.703 6.48 6.781.2.146.3.283.3.41 0 .146-.209.338-.628.575-.401.255-.684.383-.848.383-.237 0-.738-.374-1.504-1.122a41.335 41.335 0 0 1-2.515-2.652c-.893-1.057-1.632-2.014-2.215-2.871a20.21 20.21 0 0 1-2.953 3.473c-1.076 1.002-2.078 1.777-3.008 2.324-.911.565-1.531.847-1.86.847-.145 0-.218-.054-.218-.164 0-.164.173-.382.52-.656a28.162 28.162 0 0 0 3.609-3.336 25.02 25.02 0 0 0 2.953-4.02 32.602 32.602 0 0 1-2.707-5.769 17.811 17.811 0 0 1-1.75 2.516c-.602.71-.994 1.066-1.176 1.066-.091 0-.137-.064-.137-.191 0-.219.1-.502.301-.848a46.87 46.87 0 0 0 2.297-4.976c.656-1.678 1.158-3.136 1.504-4.375.365-1.258.547-2.051.547-2.38 0-.218-.01-.391-.028-.519v-.055c0-.145.092-.218.274-.218.292 0 .656.164 1.094.492.455.31.683.601.683.875 0 .237-.237.975-.71 2.215a60.812 60.812 0 0 1-1.15 2.898l5.579-.383a3.85 3.85 0 0 0 1.23-.273c.146-.037.238-.055.274-.055.219 0 .529.155.93.465.4.292.601.556.601.793 0 .2-.191.32-.574.355l-2.078.11Zm-22.04.055c0-.092.046-.137.137-.137.073 0 .128.009.165.027.273.091.647.137 1.12.137h.274l4.047-.219.027-4.812c0-.183-.027-.365-.082-.547a3.02 3.02 0 0 0-.246-.574.49.49 0 0 1-.082-.247c0-.145.119-.218.356-.218.2 0 .5.054.902.164.602.146.902.41.902.793l-.11 5.36 2.243-.138a5.52 5.52 0 0 0 1.504-.246 1.161 1.161 0 0 1 .957.219c.237.146.428.32.574.52.164.2.246.346.246.437 0 .255-.218.401-.656.438l-4.894.273-.11 4.484 2.516-.136.3-.028c.256 0 .52.119.794.356.273.219.41.428.41.629 0 .09-.037.2-.11.328-.073.128-.109.228-.109.3l-.602 4.868c.456.565.684.948.684 1.148 0 .128-.055.21-.164.246a5.246 5.246 0 0 1-.547.055l-5.934.164.082 1.094v.082c0 .164-.045.3-.136.41-.073.11-.192.164-.356.164-.255 0-.556-.11-.902-.328-.328-.2-.492-.428-.492-.684 0-.109.009-.191.027-.246a5.67 5.67 0 0 0 .082-.984l-.027-.574-.356-5.14c-.036-.548-.136-1.004-.3-1.368-.092-.182-.137-.328-.137-.438 0-.127.091-.191.273-.191.292 0 .893.155 1.805.465l1.613-.082.028-4.485-3.555.192-.547.027c-.456 0-.766-.082-.93-.246a2.286 2.286 0 0 1-.52-.766c-.108-.291-.163-.473-.163-.546Zm4.403 12.195 4.457-.164.438-4.977-5.25.274.355 4.867Zm10.91-11.594c.711 2.188 1.568 4.184 2.57 5.988.84-1.695 1.568-3.864 2.188-6.507l-4.648.328-.11.191ZM95.52 41.078a.68.68 0 0 1-.247-.027c-.018-.037.01-.1.083-.192a3.94 3.94 0 0 0 .601-.683c.164-.237.337-.61.52-1.121.291-.839.437-1.486.437-1.942 0-.419-.027-.802-.082-1.148v-.082c0-.2.128-.265.383-.192.219.055.465.128.738.22a.827.827 0 0 1 .246-.028c.11-.018.283-.046.52-.082.62-.091 1.422-.183 2.406-.274 0-.073.073-.328.219-.765l.164-.602c.073-.255.045-.383-.082-.383-.365 0-1.212.091-2.543.274l-1.45.246c-.127.018-.291-.037-.492-.164a1.662 1.662 0 0 1-.437-.438c-.091-.164-.073-.273.055-.328a.82.82 0 0 1 .437-.136h.629l1.805-.055 1.75-.219c.091-.018.2-.046.328-.082.146-.055.282-.091.41-.11.182-.036.492.165.93.602a.34.34 0 0 1 .109.246c0 .11-.073.219-.219.328-.2.2-.328.374-.383.52a4.715 4.715 0 0 1-.109.41 6.066 6.066 0 0 0-.164.629.692.692 0 0 1 .164.465c0 .146-.045.255-.137.328-.073.055-.227.082-.464.082-.821.055-1.468.11-1.942.164-.474.036-1.048.128-1.722.273a8.792 8.792 0 0 1-.493 2.27c-.255.675-.61 1.185-1.066 1.531-.438.31-.738.465-.903.465Zm8.722-10.363c.091 0 .228.064.41.191-.018.037.019.11.11.219l.191.191c.091.092.182.2.274.329.109.127.227.264.355.41.328.346 1.085 1.248 2.27 2.707.2.291.3.465.3.52 0 .182-.109.273-.328.273-.127 0-.264-.091-.41-.274-.346-.364-.966-.939-1.859-1.722-.693-.638-1.322-1.13-1.887-1.477-.273-.128-.41-.273-.41-.438 0-.127.137-.31.41-.546.255-.256.447-.383.574-.383ZM87.809 41.188c.437.455.656.783.656.984 0 .128-.064.21-.192.246-.109.036-.291.064-.546.082l-6.508.273V45.7l.027.684c.018.127.027.319.027.574 0 .565-.164 1.02-.492 1.367-.328.365-.693.547-1.094.547-.328 0-.856-.228-1.585-.684a15.327 15.327 0 0 1-2.024-1.503c-.62-.53-.93-.884-.93-1.067 0-.146.1-.219.301-.219.183 0 .365.046.547.137 1.495.638 2.68 1.057 3.555 1.258v-3.965l-5.195.219-.739.027c-.638 0-1.103-.373-1.394-1.12a.63.63 0 0 1-.082-.247c0-.091.045-.137.136-.137l.22.055c.2.073.519.11.956.11h.328l5.77-.22v-1.722l-9.27.41h-.191c-.365 0-.693-.064-.984-.191-.292-.146-.51-.483-.657-1.012a.305.305 0 0 1-.027-.137c0-.09.055-.136.164-.136l.164.027c.365.091.684.137.957.137h.219l9.625-.41v-1.504l-5.442.273h-.382c-.456 0-.812-.091-1.067-.273-.237-.183-.4-.374-.492-.575-.073-.2-.11-.346-.11-.437 0-.091.046-.137.137-.137a.38.38 0 0 1 .164.027c.401.092.73.137.985.137l.41-.027 5.77-.328V34.05l-4.813.218.027.22v.109c0 .237-.155.355-.465.355-.2 0-.464-.045-.792-.137-.31-.109-.465-.319-.465-.629v-.656c0-.255-.01-.446-.028-.574l-.191-1.477c-.055-.528-.2-.966-.438-1.312-.127-.2-.191-.346-.191-.438 0-.127.1-.19.3-.19.329 0 .958.163 1.888.491l5.167-.3v-1.587l-7.765.438a6.2 6.2 0 0 1-.656.027c-.383 0-.693-.1-.93-.3-.219-.2-.383-.41-.492-.63-.092-.236-.137-.391-.137-.464 0-.091.055-.137.164-.137.073 0 .137.01.191.027.365.092.739.137 1.121.137h.247l8.257-.492v-1.367c0-.565-.136-1.021-.41-1.367-.054-.091-.082-.155-.082-.192 0-.11.1-.164.301-.164.219 0 .474.046.766.137.455.127.747.264.875.41.127.146.191.365.191.656v1.778l6.973-.41a3.76 3.76 0 0 0 .765-.137 7.14 7.14 0 0 1 .492-.164.382.382 0 0 1 .165-.028c.255 0 .565.164.93.492.364.329.546.593.546.794 0 .2-.2.319-.601.355l-9.27.52v1.585l5.605-.328.438-.027c.237 0 .483.082.738.246.274.146.41.32.41.52 0 .109-.045.227-.136.355a1.822 1.822 0 0 0-.137.273l-.438 1.723c.456.438.684.748.684.93 0 .127-.064.21-.191.246a3.162 3.162 0 0 1-.602.082l-6.344.3v1.587l6.07-.356.302-.027c.236 0 .492.1.765.3.292.183.438.429.438.739a.85.85 0 0 1-.11.355c-.073.146-.11.256-.11.328l-.218 1.204 2.078-.082c.31-.019.593-.073.848-.164.255-.092.41-.146.465-.164.146-.037.246-.055.3-.055.183 0 .465.146.848.437.383.292.574.547.574.766 0 .219-.246.346-.738.383l-4.594.191-.3 1.778Zm-13.235-8.122 4.95-.246v-1.886l-5.168.3.218 1.832Zm6.645 8.395 5.031-.191.246-1.778-5.305.246.028 1.723Zm5.441-3.281.219-1.586-5.688.3v1.504l5.47-.218Zm-.601-5.688.328-1.941-5.196.3v1.887l4.868-.246Z"/></svg>
